!!!OTL: "Kleiner feiner Almanach" NUR EIN GESICHT AUF ERDEN LEBT
!!!ARE: Europa, Mitteleuropa, Deutschland
!!!SCT: Z0274
!!!YEM: Copyright 1995, estate of Helmut Schaffrath.
**kern
*ICvox
*Ivox
*M6/8
*k[]
*C:
{8G
=1
4c
16e
16c
4f
8e
=2
4d
16f
16d
4g}
{8f
=3
4e
16d
16c
4f
8e
=4
4.d
4r}
{8G
=5
4c
16e
16c
4f
8e
=6
4d
16f
16d
4g}
{8f
=7
4e
16d
16c
4f
8e
=8
4.d
4r}
{8G
=9
4d
16e
16c
4d
8g
=10
4g
16f
16e
4d}
{8f
=11
8.e
16d
8c
8.d
16f
16e
16d
=12
4.c
4r}
==
!!!AGN: Lyrisches Lied, Romanze
!!!ONB: ESAC (Essen Associative Code) Database: ZUCCAL
!!!AMT: compound duple
!!!AIN: vox
!!!EED: Helmut Schaffrath
!!!EEV: 1.0
*-
